Obsidian-SemiLight/actions/24s/view-multiple-objects.svg

<svg viewBox="0 0 24 24" xmlns="http://www.w3.org/2000/svg"><path d="m4 5v7h10v-7zm11 0v7h5v-7zm-10 1h8v5h-8zm-1 7v7h16v-7zm1 1h14v5h-14z" fill="#4d4d4d"/></svg>

<svg xmlns="http://www.w3.org/2000/svg" viewBox="0 0 24 24">
  <defs id="defs3051">
    <style type="text/css" id="current-color-scheme">
      .ColorScheme-Text {
        color:#4d4d4d;
      }
      </style>
  </defs>
 <path style="fill:currentColor;fill-opacity:1;stroke:none" 
     d="M 4 5 L 4 12 L 14 12 L 14 5 L 4 5 z M 15 5 L 15 12 L 20 12 L 20 5 L 15 5 z M 5 6 L 13 6 L 13 11 L 5 11 L 5 6 z M 4 13 L 4 20 L 20 20 L 20 13 L 4 13 z M 5 14 L 19 14 L 19 19 L 5 19 L 5 14 z "
     class="ColorScheme-Text"
     />
</svg>
